Newaita-dark/apps/32/blueman.svg

<svg height="32pt" viewBox="0 0 32 32" width="32pt" xmlns="http://www.w3.org/2000/svg" xmlns:xlink="http://www.w3.org/1999/xlink"><linearGradient id="a"><stop offset="0" stop-opacity=".313725"/><stop offset=".222222" stop-opacity=".27451"/><stop offset="1" stop-opacity="0"/></linearGradient><radialGradient id="b" cx="450.90894" cy="189.57936" gradientTransform="matrix(.00000017 -.0781325 -.140638 -.0000001 44.523152 63.595332)" gradientUnits="userSpaceOnUse" r="21.166656" xlink:href="#a"/><radialGradient id="c" cx="450.90894" cy="189.57936" gradientTransform="matrix(-.00000017 .0781325 .140638 .0000001 -12.770121 -7.527481)" gradientUnits="userSpaceOnUse" r="21.166656" xlink:href="#a"/><radialGradient id="d" cx="450.90894" cy="189.57936" gradientTransform="matrix(-.00000017 -.0781325 .140638 -.0000001 -12.770121 63.595332)" gradientUnits="userSpaceOnUse" r="21.166656" xlink:href="#a"/><radialGradient id="e" cx="450.90894" cy="189.57936" gradientTransform="matrix(.00000017 .0781325 -.140638 .0000001 44.52315 -7.527482)" gradientUnits="userSpaceOnUse" r="21.166656" xlink:href="#a"/><linearGradient id="f" gradientTransform="matrix(.0133601 0 0 .062506 12.465386 13.438784)" gradientUnits="userSpaceOnUse" x1="255.32306" x2="255.32304" y1="233.5" y2="254.66666"><stop offset="0" stop-opacity=".27451"/><stop offset="1" stop-opacity="0"/></linearGradient><linearGradient id="g" gradientUnits="userSpaceOnUse" x1="15.876524" x2="15.876524" y1="28.033934" y2="2.89610412498"><stop offset="0" stop-color="#3f51b5"/><stop offset="1" stop-color="#5c6bc0"/></linearGradient><linearGradient id="h" gradientUnits="userSpaceOnUse" x1="14.55348012498" x2="14.55348012498" y1="2.89610475004" y2="28.033934"><stop offset="0" stop-color="#e0e0e0"/><stop offset="1" stop-color="#bdbdbd"/></linearGradient><path d="m18.191406 28.035156h2.648438v-1.324218h-2.648438zm0 0" fill="url(#b)"/><path d="m13.5625 28.035156h-2.648438v1.320313h2.648438zm0 0" fill="url(#c)"/><path d="m13.5625 28.035156h-2.648438v-1.324218h2.648438zm0 0" fill="url(#d)"/><path d="m18.191406 28.035156h2.648438v1.320313h-2.648438zm0 0" fill="url(#e)"/><path d="m13.5625 27.703125h4.628906v1.652344h-4.628906zm0 0" fill="url(#f)"/><path d="m15.875 2.894531c4.386719 0 7.941406 3.554688 7.941406 7.941407v9.257812c0 4.386719-3.554687 7.941406-7.941406 7.941406-4.382812 0-7.9375-3.554687-7.9375-7.941406v-9.257812c0-4.386719 3.554688-7.941407 7.9375-7.941407zm0 0" fill="url(#g)"/><path d="m15.875 2.894531c-4.394531 0-7.9375 3.542969-7.9375 7.941407v.328124c0-4.398437 3.542969-7.9375 7.9375-7.9375 4.398438 0 7.941406 3.539063 7.941406 7.9375v-.328124c0-4.398438-3.542968-7.941407-7.941406-7.941407zm0 0" fill="#fff" fill-opacity=".392157"/><path d="m7.9375 19.878906v.214844c0 4.398438 3.542969 7.941406 7.9375 7.941406 4.398438 0 7.941406-3.542968 7.941406-7.941406v-.214844c0 4.398438-3.542968 7.941406-7.941406 7.941406-4.394531 0-7.9375-3.542968-7.9375-7.941406zm0 0" fill-opacity=".235294"/><path d="m15.875 2.800781c-4.445312 0-8.03125 3.585938-8.03125 8.035157v9.257812c0 4.449219 3.585938 8.035156 8.03125 8.035156 4.449219 0 8.035156-3.585937 8.035156-8.035156v-9.257812c0-4.449219-3.585937-8.035157-8.035156-8.035157zm0 .1875c4.347656 0 7.847656 3.5 7.847656 7.847657v9.257812c0 4.347656-3.5 7.847656-7.847656 7.847656s-7.84375-3.5-7.84375-7.847656v-9.257812c0-4.347657 3.496094-7.847657 7.84375-7.847657zm0 0" fill="#212121"/><path d="m15.566406 7.191406c-.269531-.007812-.527344.097656-.71875.285156s-.300781.445313-.300781.710938v4.691406l-2.292969-2.117187c-.261718-.25-.636718-.335938-.980468-.230469s-.605469.386719-.683594.738281c-.078125.351563.039062.71875.308594.960938l3.507812 3.234375-3.507812 3.234375c-.269532.242187-.386719.609375-.308594.960937.078125.351563.339844.636719.683594.738282.34375.105468.71875.019531.980468-.230469l2.292969-2.117188v4.691407c0 .375.210937.714843.542969.886718.332031.171875.730468.144532 1.035156-.074218l4.632812-3.308594c.242188-.175782.394532-.449219.414063-.75.019531-.300782-.097656-.59375-.316406-.796875l-3.507813-3.234375 3.507813-3.234375c.21875-.203125.335937-.496094.316406-.796875-.019531-.300782-.171875-.574219-.414063-.75l-4.632812-3.308594c-.164062-.117188-.359375-.179688-.558594-.183594zm.976563 2.9375 2.054687 1.464844-2.054687 1.894531zm0 7.3125 2.054687 1.894532-2.054687 1.464843zm0 0" fill="url(#h)"/><path d="m15.566406 7.191406c-.269531-.007812-.527344.097656-.71875.285156s-.300781.445313-.300781.710938v.324219c0-.265625.109375-.523438.300781-.710938s.449219-.292969.71875-.285156c.199219.003906.394532.066406.558594.183594l4.632812 3.308593c.214844.15625.359376.390626.402344.652344.0625-.378906-.09375-.753906-.402344-.976562l-4.632812-3.308594c-.164062-.117188-.359375-.179688-.558594-.183594zm-4.039062 3.296875c-.289063.011719-.554688.144531-.738282.367188-.179687.222656-.257812.511719-.207031.792969.074219-.46875.46875-.816407.945313-.835938.269531-.011719.53125.089844.726562.273438l2.292969 2.117187v-.324219l-2.292969-2.117187c-.195312-.1875-.457031-.285157-.726562-.273438zm6.761718 1.390625-1.746093 1.609375v.324219l1.746093-1.609375.109376.078125.199218-.183594zm-4.15625 3.835938-3.234374 2.984375c-.253907.230469-.375.570312-.320313.910156.039063-.226563.152344-.433594.320313-.585937l3.234374-2.984376.097657.089844.175781-.160156zm3.488282 0-.273438.253906.175782.160156.097656-.089844 3.234375 2.984376c.160156.152343.269531.355468.304687.574218.054688-.332031-.058594-.667968-.304687-.898437zm.667968 3.839844-1.746093 1.246093v.324219l1.746093-1.246094.109376.101563.199218-.144531zm0 0" fill="#fff" fill-opacity=".901961"/><path d="m16.542969 10.128906v.617188l1.675781 1.195312.378906-.347656zm-5.925781 1.664063c-.125.375-.011719.789062.28125 1.054687l3.171874 2.925782.335938-.308594-3.507812-3.234375c-.128907-.117188-.226563-.269531-.28125-.4375zm10.507812.011719c-.054688.164062-.144531.308593-.269531.425781l-3.507813 3.234375.335938.308594 3.171875-2.925782c.285156-.265625.390625-.671875.269531-1.042968zm-4.582031 5.636718v.617188l1.675781 1.546875.378906-.269531zm-1.996094.609375-2.292969 2.117188c-.25.234375-.601562.328125-.933594.246093-.332031-.085937-.597656-.335937-.703124-.660156-.140626.433594.03125.910156.417968 1.152344.386719.242188.886719.195312 1.21875-.121094l2.292969-2.117187zm6.578125 1.691407c-.066406.203124-.195312.378906-.367188.503906l-4.632812 3.308594c-.304688.21875-.703125.246093-1.035156.074218-.332032-.171875-.542969-.511718-.542969-.886718v.617187c0 .375.210937.714844.542969.886719.332031.171875.730468.144531 1.035156-.074219l4.632812-3.308594c.351563-.253906.5-.707031.367188-1.121093zm0 0" fill-opacity=".235294"/><path d="m249.038718-99.948487c-4.312088-.124988-8.436694 1.562351-11.498902 4.562064-3.062207 2.999714-4.81204 7.12432-4.81204 11.373914v75.055333l-36.683997-33.871766c-4.1871-3.999618-10.186527-5.374486-15.686002-3.687147-5.499475 1.687338-9.686575 6.186909-10.936456 11.811372s.62494 11.498902 4.937029 15.373532l56.11964 51.745058-56.11964 51.745059c-4.312089 3.87463-6.18691 9.749069-4.937029 15.373532s5.436981 10.186527 10.936456 11.811372c5.499475 1.687339 11.498902.31247 15.686002-3.687148l36.683997-33.871766v75.055333c0 5.999427 3.374677 11.436408 8.68667 14.186145 5.311993 2.749738 11.686384 2.312279 16.560919-1.187386l74.117922-52.932446c3.87463-2.812231 6.311897-7.186813 6.624367-11.998854.31247-4.81204-1.562351-9.499093-5.062017-12.748782l-56.11964-51.745059 56.11964-51.745058c3.499666-3.24969 5.374487-7.936743 5.062017-12.748783s-2.749737-9.186623-6.624367-11.998854l-74.117922-52.932445c-2.62475-1.874821-5.749451-2.874726-8.936647-2.93722zm15.623508 46.995512 32.871861 23.435262-32.871861 30.309606zm0 116.988828 32.871861 30.309606-32.871861 23.435262zm0 0" fill="none" stroke="#212121" stroke-linecap="round" stroke-linejoin="round" stroke-width="3" transform="matrix(.062506 0 0 .062506 0 13.438783)"/></svg>

<?xml version="1.0" encoding="UTF-8"?>
<svg xmlns="http://www.w3.org/2000/svg" xmlns:xlink="http://www.w3.org/1999/xlink" width="32pt" height="32pt" viewBox="0 0 32 32" version="1.1">
<defs>
<radialGradient id="radial0" gradientUnits="userSpaceOnUse" cx="450.90894" cy="189.57936" fx="450.90894" fy="189.57936" r="21.166656" gradientTransform="matrix(0.00000017417,-0.0781325,-0.140638,-0.000000101539,44.523152,63.595332)">
<stop offset="0" style="stop-color:rgb(0%,0%,0%);stop-opacity:0.313725;"/>
<stop offset="0.222222" style="stop-color:rgb(0%,0%,0%);stop-opacity:0.27451;"/>
<stop offset="1" style="stop-color:rgb(0%,0%,0%);stop-opacity:0;"/>
</radialGradient>
<radialGradient id="radial1" gradientUnits="userSpaceOnUse" cx="450.90894" cy="189.57936" fx="450.90894" fy="189.57936" r="21.166656" gradientTransform="matrix(-0.00000017417,0.0781325,0.140638,0.000000101539,-12.770121,-7.527481)">
<stop offset="0" style="stop-color:rgb(0%,0%,0%);stop-opacity:0.313725;"/>
<stop offset="0.222222" style="stop-color:rgb(0%,0%,0%);stop-opacity:0.27451;"/>
<stop offset="1" style="stop-color:rgb(0%,0%,0%);stop-opacity:0;"/>
</radialGradient>
<radialGradient id="radial2" gradientUnits="userSpaceOnUse" cx="450.90894" cy="189.57936" fx="450.90894" fy="189.57936" r="21.166656" gradientTransform="matrix(-0.00000017417,-0.0781325,0.140638,-0.000000101539,-12.770121,63.595332)">
<stop offset="0" style="stop-color:rgb(0%,0%,0%);stop-opacity:0.313725;"/>
<stop offset="0.222222" style="stop-color:rgb(0%,0%,0%);stop-opacity:0.27451;"/>
<stop offset="1" style="stop-color:rgb(0%,0%,0%);stop-opacity:0;"/>
</radialGradient>
<radialGradient id="radial3" gradientUnits="userSpaceOnUse" cx="450.90894" cy="189.57936" fx="450.90894" fy="189.57936" r="21.166656" gradientTransform="matrix(0.00000017417,0.0781325,-0.140638,0.000000101539,44.52315,-7.527482)">
<stop offset="0" style="stop-color:rgb(0%,0%,0%);stop-opacity:0.313725;"/>
<stop offset="0.222222" style="stop-color:rgb(0%,0%,0%);stop-opacity:0.27451;"/>
<stop offset="1" style="stop-color:rgb(0%,0%,0%);stop-opacity:0;"/>
</radialGradient>
<linearGradient id="linear0" gradientUnits="userSpaceOnUse" x1="255.32306" y1="233.5" x2="255.32304" y2="254.66666" gradientTransform="matrix(0.0133601,0,0,0.062506,12.465386,13.438784)">
<stop offset="0" style="stop-color:rgb(0%,0%,0%);stop-opacity:0.27451;"/>
<stop offset="1" style="stop-color:rgb(0%,0%,0%);stop-opacity:0;"/>
</linearGradient>
<linearGradient id="linear1" gradientUnits="userSpaceOnUse" x1="254" y1="233.5" x2="254" y2="-168.66667" gradientTransform="matrix(0.062506,0,0,0.062506,0,13.438783)">
<stop offset="0" style="stop-color:rgb(24.705882%,31.764706%,70.980392%);stop-opacity:1;"/>
<stop offset="1" style="stop-color:rgb(36.078431%,41.960784%,75.294118%);stop-opacity:1;"/>
</linearGradient>
<linearGradient id="linear2" gradientUnits="userSpaceOnUse" x1="232.83333" y1="-168.66666" x2="232.83333" y2="233.5" gradientTransform="matrix(0.062506,0,0,0.062506,0,13.438783)">
<stop offset="0" style="stop-color:rgb(87.843137%,87.843137%,87.843137%);stop-opacity:1;"/>
<stop offset="1" style="stop-color:rgb(74.117647%,74.117647%,74.117647%);stop-opacity:1;"/>
</linearGradient>
</defs>
<g id="surface1">
<path style=" stroke:none;fill-rule:nonzero;fill:url(#radial0);" d="M 18.191406 28.035156 L 20.839844 28.035156 L 20.839844 26.710938 L 18.191406 26.710938 Z M 18.191406 28.035156 "/>
<path style=" stroke:none;fill-rule:nonzero;fill:url(#radial1);" d="M 13.5625 28.035156 L 10.914062 28.035156 L 10.914062 29.355469 L 13.5625 29.355469 Z M 13.5625 28.035156 "/>
<path style=" stroke:none;fill-rule:nonzero;fill:url(#radial2);" d="M 13.5625 28.035156 L 10.914062 28.035156 L 10.914062 26.710938 L 13.5625 26.710938 Z M 13.5625 28.035156 "/>
<path style=" stroke:none;fill-rule:nonzero;fill:url(#radial3);" d="M 18.191406 28.035156 L 20.839844 28.035156 L 20.839844 29.355469 L 18.191406 29.355469 Z M 18.191406 28.035156 "/>
<path style=" stroke:none;fill-rule:nonzero;fill:url(#linear0);" d="M 13.5625 27.703125 L 18.191406 27.703125 L 18.191406 29.355469 L 13.5625 29.355469 Z M 13.5625 27.703125 "/>
<path style=" stroke:none;fill-rule:nonzero;fill:url(#linear1);" d="M 15.875 2.894531 C 20.261719 2.894531 23.816406 6.449219 23.816406 10.835938 L 23.816406 20.09375 C 23.816406 24.480469 20.261719 28.035156 15.875 28.035156 C 11.492188 28.035156 7.9375 24.480469 7.9375 20.09375 L 7.9375 10.835938 C 7.9375 6.449219 11.492188 2.894531 15.875 2.894531 Z M 15.875 2.894531 "/>
<path style=" stroke:none;fill-rule:nonzero;fill:rgb(100%,100%,100%);fill-opacity:0.392157;" d="M 15.875 2.894531 C 11.480469 2.894531 7.9375 6.4375 7.9375 10.835938 L 7.9375 11.164062 C 7.9375 6.765625 11.480469 3.226562 15.875 3.226562 C 20.273438 3.226562 23.816406 6.765625 23.816406 11.164062 L 23.816406 10.835938 C 23.816406 6.4375 20.273438 2.894531 15.875 2.894531 Z M 15.875 2.894531 "/>
<path style=" stroke:none;fill-rule:nonzero;fill:rgb(0%,0%,0%);fill-opacity:0.235294;" d="M 7.9375 19.878906 L 7.9375 20.09375 C 7.9375 24.492188 11.480469 28.035156 15.875 28.035156 C 20.273438 28.035156 23.816406 24.492188 23.816406 20.09375 L 23.816406 19.878906 C 23.816406 24.277344 20.273438 27.820312 15.875 27.820312 C 11.480469 27.820312 7.9375 24.277344 7.9375 19.878906 Z M 7.9375 19.878906 "/>
<path style=" stroke:none;fill-rule:nonzero;fill:rgb(12.941176%,12.941176%,12.941176%);fill-opacity:1;" d="M 15.875 2.800781 C 11.429688 2.800781 7.84375 6.386719 7.84375 10.835938 L 7.84375 20.09375 C 7.84375 24.542969 11.429688 28.128906 15.875 28.128906 C 20.324219 28.128906 23.910156 24.542969 23.910156 20.09375 L 23.910156 10.835938 C 23.910156 6.386719 20.324219 2.800781 15.875 2.800781 Z M 15.875 2.988281 C 20.222656 2.988281 23.722656 6.488281 23.722656 10.835938 L 23.722656 20.09375 C 23.722656 24.441406 20.222656 27.941406 15.875 27.941406 C 11.527344 27.941406 8.03125 24.441406 8.03125 20.09375 L 8.03125 10.835938 C 8.03125 6.488281 11.527344 2.988281 15.875 2.988281 Z M 15.875 2.988281 "/>
<path style=" stroke:none;fill-rule:nonzero;fill:url(#linear2);" d="M 15.566406 7.191406 C 15.296875 7.183594 15.039062 7.289062 14.847656 7.476562 C 14.65625 7.664062 14.546875 7.921875 14.546875 8.1875 L 14.546875 12.878906 L 12.253906 10.761719 C 11.992188 10.511719 11.617188 10.425781 11.273438 10.53125 C 10.929688 10.636719 10.667969 10.917969 10.589844 11.269531 C 10.511719 11.621094 10.628906 11.988281 10.898438 12.230469 L 14.40625 15.464844 L 10.898438 18.699219 C 10.628906 18.941406 10.511719 19.308594 10.589844 19.660156 C 10.667969 20.011719 10.929688 20.296875 11.273438 20.398438 C 11.617188 20.503906 11.992188 20.417969 12.253906 20.167969 L 14.546875 18.050781 L 14.546875 22.742188 C 14.546875 23.117188 14.757812 23.457031 15.089844 23.628906 C 15.421875 23.800781 15.820312 23.773438 16.125 23.554688 L 20.757812 20.246094 C 21 20.070312 21.152344 19.796875 21.171875 19.496094 C 21.191406 19.195312 21.074219 18.902344 20.855469 18.699219 L 17.347656 15.464844 L 20.855469 12.230469 C 21.074219 12.027344 21.191406 11.734375 21.171875 11.433594 C 21.152344 11.132812 21 10.859375 20.757812 10.683594 L 16.125 7.375 C 15.960938 7.257812 15.765625 7.195312 15.566406 7.191406 Z M 16.542969 10.128906 L 18.597656 11.59375 L 16.542969 13.488281 Z M 16.542969 17.441406 L 18.597656 19.335938 L 16.542969 20.800781 Z M 16.542969 17.441406 "/>
<path style=" stroke:none;fill-rule:nonzero;fill:rgb(100%,100%,100%);fill-opacity:0.901961;" d="M 15.566406 7.191406 C 15.296875 7.183594 15.039062 7.289062 14.847656 7.476562 C 14.65625 7.664062 14.546875 7.921875 14.546875 8.1875 L 14.546875 8.511719 C 14.546875 8.246094 14.65625 7.988281 14.847656 7.800781 C 15.039062 7.613281 15.296875 7.507812 15.566406 7.515625 C 15.765625 7.519531 15.960938 7.582031 16.125 7.699219 L 20.757812 11.007812 C 20.972656 11.164062 21.117188 11.398438 21.160156 11.660156 C 21.222656 11.28125 21.066406 10.90625 20.757812 10.683594 L 16.125 7.375 C 15.960938 7.257812 15.765625 7.195312 15.566406 7.191406 Z M 11.527344 10.488281 C 11.238281 10.5 10.972656 10.632812 10.789062 10.855469 C 10.609375 11.078125 10.53125 11.367188 10.582031 11.648438 C 10.65625 11.179688 11.050781 10.832031 11.527344 10.8125 C 11.796875 10.800781 12.058594 10.902344 12.253906 11.085938 L 14.546875 13.203125 L 14.546875 12.878906 L 12.253906 10.761719 C 12.058594 10.574219 11.796875 10.476562 11.527344 10.488281 Z M 18.289062 11.878906 L 16.542969 13.488281 L 16.542969 13.8125 L 18.289062 12.203125 L 18.398438 12.28125 L 18.597656 12.097656 Z M 14.132812 15.714844 L 10.898438 18.699219 C 10.644531 18.929688 10.523438 19.269531 10.578125 19.609375 C 10.617188 19.382812 10.730469 19.175781 10.898438 19.023438 L 14.132812 16.039062 L 14.230469 16.128906 L 14.40625 15.96875 Z M 17.621094 15.714844 L 17.347656 15.96875 L 17.523438 16.128906 L 17.621094 16.039062 L 20.855469 19.023438 C 21.015625 19.175781 21.125 19.378906 21.160156 19.597656 C 21.214844 19.265625 21.101562 18.929688 20.855469 18.699219 Z M 18.289062 19.554688 L 16.542969 20.800781 L 16.542969 21.125 L 18.289062 19.878906 L 18.398438 19.980469 L 18.597656 19.835938 Z M 18.289062 19.554688 "/>
<path style=" stroke:none;fill-rule:nonzero;fill:rgb(0%,0%,0%);fill-opacity:0.235294;" d="M 16.542969 10.128906 L 16.542969 10.746094 L 18.21875 11.941406 L 18.597656 11.59375 Z M 10.617188 11.792969 C 10.492188 12.167969 10.605469 12.582031 10.898438 12.847656 L 14.070312 15.773438 L 14.40625 15.464844 L 10.898438 12.230469 C 10.769531 12.113281 10.671875 11.960938 10.617188 11.792969 Z M 21.125 11.804688 C 21.070312 11.96875 20.980469 12.113281 20.855469 12.230469 L 17.347656 15.464844 L 17.683594 15.773438 L 20.855469 12.847656 C 21.140625 12.582031 21.246094 12.175781 21.125 11.804688 Z M 16.542969 17.441406 L 16.542969 18.058594 L 18.21875 19.605469 L 18.597656 19.335938 Z M 14.546875 18.050781 L 12.253906 20.167969 C 12.003906 20.402344 11.652344 20.496094 11.320312 20.414062 C 10.988281 20.328125 10.722656 20.078125 10.617188 19.753906 C 10.476562 20.1875 10.648438 20.664062 11.035156 20.90625 C 11.421875 21.148438 11.921875 21.101562 12.253906 20.785156 L 14.546875 18.667969 Z M 21.125 19.742188 C 21.058594 19.945312 20.929688 20.121094 20.757812 20.246094 L 16.125 23.554688 C 15.820312 23.773438 15.421875 23.800781 15.089844 23.628906 C 14.757812 23.457031 14.546875 23.117188 14.546875 22.742188 L 14.546875 23.359375 C 14.546875 23.734375 14.757812 24.074219 15.089844 24.246094 C 15.421875 24.417969 15.820312 24.390625 16.125 24.171875 L 20.757812 20.863281 C 21.109375 20.609375 21.257812 20.15625 21.125 19.742188 Z M 21.125 19.742188 "/>
<path style="fill:none;stroke-width:3;stroke-linecap:round;stroke-linejoin:round;stroke:rgb(12.941176%,12.941176%,12.941176%);stroke-opacity:1;stroke-miterlimit:4;" d="M 249.038718 -99.948487 C 244.72663 -100.073475 240.602024 -98.386136 237.539816 -95.386423 C 234.477609 -92.386709 232.727776 -88.262103 232.727776 -84.012509 L 232.727776 -8.957176 L 196.043779 -42.828942 C 191.856679 -46.82856 185.857252 -48.203428 180.357777 -46.516089 C 174.858302 -44.828751 170.671202 -40.32918 169.421321 -34.704717 C 168.17144 -29.080254 170.046261 -23.205815 174.35835 -19.331185 L 230.47799 32.413873 L 174.35835 84.158932 C 170.046261 88.033562 168.17144 93.908001 169.421321 99.532464 C 170.671202 105.156927 174.858302 109.718991 180.357777 111.343836 C 185.857252 113.031175 191.856679 111.656306 196.043779 107.656688 L 232.727776 73.784922 L 232.727776 148.840255 C 232.727776 154.839682 236.102453 160.276663 241.414446 163.0264 C 246.726439 165.776138 253.10083 165.338679 257.975365 161.839014 L 332.093287 108.906568 C 335.967917 106.094337 338.405184 101.719755 338.717654 96.907714 C 339.030124 92.095674 337.155303 87.408621 333.655637 84.158932 L 277.535997 32.413873 L 333.655637 -19.331185 C 337.155303 -22.580875 339.030124 -27.267928 338.717654 -32.079968 C 338.405184 -36.892008 335.967917 -41.266591 332.093287 -44.078822 L 257.975365 -97.011267 C 255.350615 -98.886088 252.225914 -99.885993 249.038718 -99.948487 Z M 264.662226 -52.952975 L 297.534087 -29.517713 L 264.662226 0.791893 Z M 264.662226 64.035853 L 297.534087 94.345459 L 264.662226 117.780721 Z M 264.662226 64.035853 " transform="matrix(0.062506,0,0,0.062506,0,13.438783)"/>
</g>
</svg>
